X: 36803
T: Shetland Lullaby
R: barndance
M: 4/4
K: Aminor
A3 B A2 G2|A2 BA G4|A2 AB c2 c2|B2 G2 A4|A2 B2 c2 d2|B2 BA G4|
A2 B2 c2 c2|B2 G2 A4||A2 B2 A2 G2|A2 B2 A2 G2|A2 B2 c2 c2|
BB G2 B2 A2|A2 B2 c2 d2|B2 BA G4|A2 B2 c2 c2|B2 G2 A4||

